packages/kaspersky-hexa-ui-icons/src/iconsSVGs/16/Amazon.svg

<svg width="16" height="16" viewBox="0 0 16 16" fill="none" xmlns="http://www.w3.org/2000/svg">
<path d="M1.02545 11.588C1.06787 11.5187 1.13575 11.5143 1.22909 11.575C3.35029 12.8317 5.65818 13.46 8.15273 13.46C9.81575 13.46 11.4576 13.1437 13.0782 12.511C13.1206 12.4937 13.1821 12.4677 13.2627 12.433C13.3433 12.3983 13.4006 12.3723 13.4345 12.355C13.5618 12.303 13.6615 12.329 13.7336 12.433C13.8057 12.537 13.7824 12.6323 13.6636 12.719C13.5109 12.8317 13.3157 12.9617 13.0782 13.109C12.3485 13.551 11.5339 13.8933 10.6345 14.136C9.73515 14.3787 8.85697 14.5 8 14.5C6.67636 14.5 5.42484 14.2638 4.24545 13.7915C3.06606 13.3192 2.00969 12.654 1.07636 11.796C1.02545 11.7527 1 11.7093 1 11.666C1 11.64 1.00848 11.614 1.02545 11.588ZM4.85636 7.883C4.85636 7.285 5.0006 6.77367 5.28909 6.349C5.57757 5.92433 5.97211 5.60367 6.47273 5.387C6.93091 5.18767 7.49515 5.04467 8.16545 4.958C8.39455 4.932 8.76787 4.89733 9.28545 4.854V4.633C9.28545 4.07833 9.22606 3.70567 9.10727 3.515C8.92909 3.255 8.64909 3.125 8.26727 3.125H8.16545C7.88545 3.151 7.64364 3.242 7.44 3.398C7.23636 3.554 7.10484 3.77067 7.04545 4.048C7.01151 4.22133 6.92666 4.321 6.79091 4.347L5.32727 4.165C5.18302 4.13033 5.11091 4.05233 5.11091 3.931C5.11091 3.905 5.11515 3.87467 5.12364 3.84C5.26787 3.06867 5.62211 2.49667 6.18636 2.124C6.7506 1.75133 7.41029 1.54333 8.16545 1.5H8.48364C9.45091 1.5 10.2061 1.75567 10.7491 2.267C10.8343 2.35406 10.913 2.44749 10.9845 2.5465C11.0567 2.64617 11.1139 2.735 11.1564 2.813C11.1988 2.891 11.237 3.00367 11.2709 3.151C11.3048 3.29833 11.3303 3.40017 11.3473 3.4565C11.3642 3.51283 11.377 3.63417 11.3855 3.8205C11.3939 4.00683 11.3982 4.11733 11.3982 4.152V7.298C11.3982 7.52333 11.43 7.72917 11.4936 7.9155C11.5573 8.10183 11.6188 8.23617 11.6782 8.3185C11.7376 8.40083 11.8351 8.533 11.9709 8.715C12.0218 8.793 12.0473 8.86233 12.0473 8.923C12.0473 8.99233 12.0133 9.053 11.9455 9.105C11.2412 9.729 10.8594 10.067 10.8 10.119C10.6982 10.197 10.5751 10.2057 10.4309 10.145C10.3121 10.041 10.2082 9.94133 10.1191 9.846C10.03 9.75067 9.96636 9.68133 9.92818 9.638C9.89 9.59467 9.82848 9.51017 9.74364 9.3845C9.65878 9.25883 9.59939 9.17433 9.56545 9.131C9.09029 9.65967 8.62364 9.989 8.16545 10.119C7.87697 10.2057 7.5206 10.249 7.09636 10.249C6.44302 10.249 5.90636 10.0432 5.48636 9.6315C5.06636 9.21983 4.85636 8.637 4.85636 7.883ZM7.04545 7.623C7.04545 7.961 7.12818 8.23183 7.29364 8.4355C7.45909 8.63917 7.68182 8.741 7.96182 8.741C7.98727 8.741 8.02333 8.73667 8.07 8.728C8.11666 8.71933 8.14848 8.715 8.16545 8.715C8.52182 8.61967 8.79757 8.38567 8.99273 8.013C9.08606 7.84833 9.15606 7.6685 9.20273 7.4735C9.24939 7.2785 9.27484 7.12033 9.27909 6.999C9.28333 6.87767 9.28545 6.67833 9.28545 6.401V6.076C8.79333 6.076 8.42 6.11067 8.16545 6.18C7.41878 6.39667 7.04545 6.87767 7.04545 7.623ZM12.3909 11.809C12.4079 11.7743 12.4333 11.7397 12.4673 11.705C12.6794 11.5577 12.883 11.458 13.0782 11.406C13.4006 11.3193 13.7145 11.2717 14.02 11.263C14.1048 11.2543 14.1855 11.2587 14.2618 11.276C14.6436 11.3107 14.8727 11.3757 14.9491 11.471C14.983 11.523 15 11.601 15 11.705V11.796C15 12.0993 14.9194 12.4568 14.7582 12.8685C14.597 13.2802 14.3721 13.6117 14.0836 13.863C14.0412 13.8977 14.003 13.915 13.9691 13.915C13.9521 13.915 13.9351 13.9107 13.9182 13.902C13.8673 13.876 13.8545 13.8283 13.88 13.759C14.1939 13.005 14.3509 12.4807 14.3509 12.186C14.3509 12.0907 14.3339 12.0213 14.3 11.978C14.2151 11.874 13.9776 11.822 13.5873 11.822C13.443 11.822 13.2733 11.8307 13.0782 11.848C12.8661 11.874 12.6709 11.9 12.4927 11.926C12.4418 11.926 12.4079 11.9173 12.3909 11.9C12.3739 11.8827 12.3697 11.8653 12.3782 11.848C12.3782 11.8393 12.3824 11.8263 12.3909 11.809Z" fill="black"/>
</svg>

<svg xmlns="http://www.w3.org/2000/svg" width="16" height="16" fill="none" viewBox="0 0 16 16"><path fill="#000" d="M1.0255 11.588q.0636-.104.2036-.013 3.1818 1.885 6.9236 1.885 2.4945 0 4.9255-.949.0636-.026.1845-.078a3.3 3.3 0 0 0 .1718-.078q.191-.078.2991.078.1082.156-.07.286-.2291.169-.5854.39-1.0946.663-2.4437 1.027Q9.2855 14.5 8 14.5q-1.9855 0-3.7545-.7085T1.0764 11.796Q1 11.731 1 11.666q0-.039.0254-.078m3.8309-3.705q0-.897.4327-1.534t1.1836-.962q.6873-.299 1.6928-.429.3435-.039 1.12-.104v-.221q0-.832-.1782-1.118-.2673-.39-.84-.39h-.1019q-.42.039-.7254.273t-.3946.65q-.0508.26-.2545.299l-1.4636-.182q-.2164-.052-.2164-.234 0-.039.0127-.091.2164-1.157 1.0628-1.716t1.979-.624h.3182q1.451 0 2.2655.767c.0852.087.1639.1805.2354.2795q.1082.1495.1719.2665t.1145.338.0764.3055q.0254.0845.0382.364.0126.2794.0127.3315v3.146q0 .338.0954.6175.0955.2795.1846.403t.2927.3965q.0764.117.0764.208 0 .104-.1018.182-1.0564.936-1.1455 1.014-.1528.117-.3691.026a4.3 4.3 0 0 1-.3118-.299 11 11 0 0 1-.191-.208q-.0572-.065-.1845-.2535t-.1782-.2535q-.7127.793-1.4.988-.4327.13-1.069.13-.98 0-1.61-.6175t-.63-1.7485m2.189-.26q0 .507.2482.8125t.6682.3055q.0382 0 .1082-.013t.0954-.013q.5346-.143.8273-.702a2.06 2.06 0 0 0 .21-.5395q.07-.2925.0764-.4745t.0064-.598v-.325q-.7383 0-1.12.104-1.12.325-1.12 1.443m5.3455 4.186a.4.4 0 0 1 .0764-.104q.3181-.221.6109-.299.4836-.13.9418-.143a.74.74 0 0 1 .2418.013q.5727.052.6873.195.0509.078.0509.234v.091q0 .455-.2418 1.0725t-.6746.9945q-.0636.052-.1145.052a.11.11 0 0 1-.0509-.013q-.0764-.039-.0382-.143.4709-1.131.4709-1.573 0-.143-.0509-.208-.1273-.156-.7127-.156-.2164 0-.5091.026-.3182.039-.5855.078-.0763 0-.1018-.026t-.0127-.052q0-.013.0127-.039"/></svg>
